assets/features/channel/other/jazzcash.svg

<svg width="80" height="80" viewBox="0 0 80 80" fill="none" xmlns="http://www.w3.org/2000/svg">
<rect x="0.5" y="0.5" width="79" height="79" rx="7.5" fill="white"/>
<rect x="0.5" y="0.5" width="79" height="79" rx="7.5" stroke="#EEEEEE"/>
<path d="M38.7034 54.7053C38.0351 55.2344 37.3971 55.8065 36.6933 56.2825C34.0757 58.0546 31.0732 58.8495 28.0454 59.5229C24.2717 60.3811 20.3265 60.0766 16.7292 58.6495C16.0583 58.3963 15.2988 58.0951 15.2102 57.2824C15.1039 56.4217 15.8431 55.9989 16.4482 55.5812C17.3039 54.9939 18.2785 54.6319 19.2152 54.1964C22.0801 52.9065 24.5331 50.8503 26.3037 48.2548C27.5138 46.4675 27.8226 44.4574 27.7771 42.3435C27.7138 39.1537 27.7163 35.9613 27.7036 32.7715C27.6901 29.288 27.6851 25.8046 27.6885 22.3211C27.6885 20.468 28.9542 19.5617 30.7036 20.2072C33.4009 21.2233 35.893 22.7172 38.0604 24.6173C38.1971 24.7337 38.3414 24.8375 38.4832 24.9489C39.2857 25.3539 39.8401 26.0527 40.3996 26.7058C42.8679 29.5994 44.5337 32.8956 45.1615 36.6677C45.8298 40.6904 45.1488 44.5156 43.4704 48.2143C42.4817 50.3338 41.1784 52.2917 39.6047 54.0217C39.3439 54.3028 39.1135 54.6268 38.7034 54.7053Z" fill="#FEC50A"/>
<path d="M38.7035 54.7054C40.5415 52.8017 42.1288 50.7156 43.2224 48.2929C46.597 40.8171 45.7084 33.8451 40.7136 27.3693C40.0402 26.4933 39.1946 25.7668 38.4731 24.9491C39.8022 24.0301 41.1516 23.139 42.549 22.3238C44.7768 21.0251 47.2249 20.501 49.7387 20.2302C52.688 19.9137 55.6196 19.9922 58.4854 20.8656C60.4701 21.4681 62.1967 22.5618 63.8296 23.7997C64.6802 24.4427 64.589 24.7693 63.6093 25.1617C57.8348 27.4629 54.2146 31.6755 52.8602 37.7083C52.0197 41.4551 53.169 44.8828 55.0804 48.1258C56.9917 51.3688 59.9613 53.2776 63.3005 54.6928C64.346 55.1333 64.703 55.8421 63.5232 56.675C61.9866 57.7661 60.2322 58.4319 58.4423 58.9535C51.1134 61.0395 44.4933 59.799 38.7035 54.7054Z" fill="#ED2327"/>
</svg>

<svg xmlns="http://www.w3.org/2000/svg" width="80" height="80" fill="none" viewBox="0 0 80 80"><rect width="79" height="79" x=".5" y=".5" fill="#fff" rx="7.5"/><rect width="79" height="79" x=".5" y=".5" stroke="#eee" rx="7.5"/><path fill="#fec50a" d="M38.703 54.705c-.668.53-1.306 1.102-2.01 1.578-2.617 1.772-5.62 2.566-8.648 3.24a19.16 19.16 0 0 1-11.316-.873c-.67-.254-1.43-.555-1.519-1.368-.106-.86.633-1.283 1.238-1.7.856-.588 1.83-.95 2.767-1.386a17.06 17.06 0 0 0 7.089-5.941c1.21-1.788 1.519-3.798 1.473-5.912-.063-3.19-.06-6.382-.073-9.571a2154 2154 0 0 1-.015-10.45c0-1.854 1.265-2.76 3.015-2.115a24 24 0 0 1 7.356 4.41c.137.117.281.22.423.332.803.405 1.357 1.104 1.917 1.757 2.468 2.893 4.134 6.19 4.761 9.962.669 4.022-.012 7.848-1.69 11.546a23.2 23.2 0 0 1-3.866 5.808c-.261.28-.491.605-.902.683"/><path fill="#ed2327" d="M38.704 54.705c1.837-1.903 3.425-3.99 4.518-6.412 3.375-7.476 2.486-14.448-2.508-20.924-.674-.876-1.52-1.602-2.24-2.42 1.328-.919 2.678-1.81 4.075-2.625 2.228-1.299 4.676-1.823 7.19-2.094 2.949-.316 5.88-.238 8.746.636 1.985.602 3.712 1.696 5.345 2.934.85.643.759.97-.22 1.362-5.775 2.3-9.395 6.514-10.75 12.546-.84 3.747.309 7.175 2.22 10.418s4.881 5.152 8.22 6.567c1.046.44 1.403 1.15.223 1.982-1.536 1.091-3.29 1.757-5.08 2.279-7.33 2.085-13.95.845-19.74-4.249"/></svg>
